src/lib/packages/icons/src/assets/filled/arrow-turn-left-up.svg

<svg width="24" height="24" viewBox="0 0 24 24" fill="none" xmlns="http://www.w3.org/2000/svg">
<path d="M19 21.0001C19 21.5521 18.553 22.0001 18 22.0001H13C10.794 22.0001 9.00004 20.2061 9.00004 18.0001V5.41413L6.70707 7.7071C6.31607 8.0981 5.68401 8.0981 5.29301 7.7071C4.90201 7.3161 4.90201 6.68403 5.29301 6.29304L9.29203 2.29401C9.38503 2.20101 9.49496 2.12797 9.61796 2.07697C9.86196 1.97597 10.1381 1.97597 10.3821 2.07697C10.5051 2.12797 10.615 2.20101 10.708 2.29401L14.7071 6.29304C15.0981 6.68403 15.0981 7.3161 14.7071 7.7071C14.5121 7.9021 14.256 8.00007 14 8.00007C13.744 8.00007 13.488 7.9021 13.293 7.7071L11 5.41413V18.0001C11 19.1031 11.897 20.0001 13 20.0001H18C18.553 20.0001 19 20.4481 19 21.0001Z" fill="currentColor"/>
</svg>

<svg xmlns="http://www.w3.org/2000/svg" width="24" height="24" fill="none"><path fill="currentColor" d="M19 21a1 1 0 0 1-1 1h-5c-2.206 0-4-1.794-4-4V5.414L6.707 7.707a.999.999 0 1 1-1.414-1.414l3.999-3.999a1 1 0 0 1 1.416 0l4 3.999a.999.999 0 1 1-1.415 1.414L11 5.414V18c0 1.103.897 2 2 2h5a1 1 0 0 1 1 1Z"/></svg>
